src/icons/main-upload.svg

<svg enable-background="new 0 0 14 14" viewBox="0 0 14 14" xmlns="http://www.w3.org/2000/svg"><path d="m7 0c-3.9 0-7 3.1-7 7s3.1 7 7 7 7-3.1 7-7-3.1-7-7-7zm2.6 7c-.2 0-.4-.1-.6-.3l-1.1-1.1v4.9c0 .5-.4.9-.9.9s-.9-.4-.9-.9v-4.9l-1.1 1.1c-.2.2-.4.3-.6.3-.5 0-.9-.4-.9-.9 0-.2.1-.5.3-.6l2.6-2.6c.1-.2.4-.3.6-.3s.5.1.6.3l2.6 2.6c.2.2.3.4.3.6 0 .5-.4.9-.9.9z" fill="#4d5969"/></svg>

<?xml version="1.0" encoding="utf-8"?>
<!-- Generator: Adobe Illustrator 20.1.0, SVG Export Plug-In . SVG Version: 6.00 Build 0)  -->
<svg version="1.1" id="Layer_1" xmlns="http://www.w3.org/2000/svg" xmlns:xlink="http://www.w3.org/1999/xlink" x="0px" y="0px"
	 viewBox="0 0 14 14" style="enable-background:new 0 0 14 14;" xml:space="preserve">
<style type="text/css">
	.st0{fill:#4D5969;}
</style>
<title>HDL/Icon/Standard/upload</title>
<desc>Created with Sketch.</desc>
<g id="Colors">
	<g id="Main-Icons" transform="translate(-1123.000000, -1111.000000)">
		<g id="Upload" transform="translate(1100.000000, 1093.000000)">
			<g id="HDL_x2F_Icon_x2F_Standard_x2F_upload" transform="translate(23.000000, 18.000000)">
				<path id="Shape" class="st0" d="M7,0C3.1,0,0,3.1,0,7s3.1,7,7,7s7-3.1,7-7S10.9,0,7,0z M9.6,7C9.4,7,9.2,6.9,9,6.7L7.9,5.6v4.9
					c0,0.5-0.4,0.9-0.9,0.9S6.1,11,6.1,10.5V5.6L5,6.7C4.8,6.9,4.6,7,4.4,7C3.9,7,3.5,6.6,3.5,6.1c0-0.2,0.1-0.5,0.3-0.6l2.6-2.6
					C6.5,2.7,6.8,2.6,7,2.6s0.5,0.1,0.6,0.3l2.6,2.6c0.2,0.2,0.3,0.4,0.3,0.6C10.5,6.6,10.1,7,9.6,7z"/>
			</g>
		</g>
	</g>
</g>
</svg>
